projects/more-shaders/santagirl/assets/images/icons/gamepad.svg

<?xml version="1.0" encoding="utf-8"?><!-- Uploaded to: SVG Repo, www.svgrepo.com, Generator: SVG Repo Mixer Tools -->
<svg width="800px" height="800px" viewBox="0 0 24 24" fill="none" xmlns="http://www.w3.org/2000/svg">
<path d="M21.2206 8C20.5311 5.81603 19.4281 4.63486 18.0908 4.16059C17.7099 4.02549 17.3016 4 16.8974 4H16.2849C15.4074 4 14.5514 4.27225 13.8351 4.77922L13.3332 5.13441C12.9434 5.41029 12.4776 5.55844 12 5.55844C11.5225 5.55844 11.0567 5.41029 10.6669 5.13443L10.165 4.77922C9.44862 4.27225 8.59264 4 7.71504 4H7.10257C6.69838 4 6.29009 4.02549 5.90915 4.16059C3.52645 5.00566 1.88749 8.09504 2.00604 15.1026C2.02992 16.5145 2.3603 18.075 3.63423 18.6842C4.03121 18.8741 4.49667 19 5.02671 19C5.66273 19 6.1678 18.8187 6.55763 18.5632C7.47153 17.9642 8.14122 16.9639 9.11125 16.4609C9.69519 16.1581 10.3434 16 11.0011 16H12.9989C13.6566 16 14.3048 16.1581 14.8888 16.4609C15.8588 16.9639 16.5285 17.9642 17.4424 18.5632C17.8322 18.8187 18.3373 19 18.9733 19C19.5033 19 19.9688 18.8741 20.3658 18.6842C21.6397 18.075 21.9701 16.5145 21.994 15.1026C22.0132 13.9681 21.9863 12.9362 21.9176 12" stroke="#1C274C" stroke-width="1.5" stroke-linecap="round"/>
<path d="M7.5 9V12M6 10.5L9 10.5" stroke="#1C274C" stroke-width="1.5" stroke-linecap="round"/>
<path d="M19 10.25C19 10.6642 18.6642 11 18.25 11C17.8358 11 17.5 10.6642 17.5 10.25C17.5 9.83579 17.8358 9.5 18.25 9.5C18.6642 9.5 19 9.83579 19 10.25Z" fill="#1C274C"/>
<path d="M16 10.25C16 10.6642 15.6642 11 15.25 11C14.8358 11 14.5 10.6642 14.5 10.25C14.5 9.83579 14.8358 9.5 15.25 9.5C15.6642 9.5 16 9.83579 16 10.25Z" fill="#1C274C"/>
<path d="M16.75 8C17.1642 8 17.5 8.33579 17.5 8.75C17.5 9.16421 17.1642 9.5 16.75 9.5C16.3358 9.5 16 9.16421 16 8.75C16 8.33579 16.3358 8 16.75 8Z" fill="#1C274C"/>
<path d="M16.75 11C17.1642 11 17.5 11.3358 17.5 11.75C17.5 12.1642 17.1642 12.5 16.75 12.5C16.3358 12.5 16 12.1642 16 11.75C16 11.3358 16.3358 11 16.75 11Z" fill="#1C274C"/>
</svg>

<svg fill="none" viewBox="0 0 24 24" xmlns="http://www.w3.org/2000/svg"><path stroke="#1c274c" stroke-linecap="round" stroke-width="1.5" d="M21.22 8c-.689-2.184-1.792-3.365-3.13-3.84-.38-.135-.788-.16-1.193-.16h-.612a4.24 4.24 0 0 0-2.45.78l-.502.354a2.31 2.31 0 0 1-2.666 0l-.502-.355A4.24 4.24 0 0 0 7.715 4h-.612c-.405 0-.813.025-1.194.16-2.383.846-4.022 3.935-3.903 10.943.024 1.412.354 2.972 1.628 3.581A3.2 3.2 0 0 0 5.027 19a2.74 2.74 0 0 0 1.53-.437c.915-.599 1.584-1.6 2.554-2.102a4.1 4.1 0 0 1 1.89-.461H13c.658 0 1.306.158 1.89.46.97.504 1.64 1.504 2.553 2.103.39.256.895.437 1.531.437a3.2 3.2 0 0 0 1.393-.316c1.274-.609 1.604-2.17 1.628-3.581A35 35 0 0 0 21.918 12M7.5 9v3M6 10.5h3"/><path fill="#1c274c" d="M19 10.25a.75.75 0 1 1-1.5 0 .75.75 0 0 1 1.5 0m-3 0a.75.75 0 1 1-1.5 0 .75.75 0 0 1 1.5 0M16.75 8a.75.75 0 1 1 0 1.5.75.75 0 0 1 0-1.5m0 3a.75.75 0 1 1 0 1.5.75.75 0 0 1 0-1.5"/></svg>
